X: 10342
M: 3/4
L: 1/8
K: G
dBG2Bc | dBG2gf | e2e2e2 | e3dcB |\
g2g2a2 | g2g2a2 |
g2a2b2 | afd2ef |\
gfgdfd | gfgdfd | g2dcBA | G4 :: GB |\
d2d^cdc | dBedcB | A2A2d2 | B2z2GB |\
d2d^cdc |
dBedcB | A2AGAB | G4 :: d2 |\
g2g2bg | d2dgdB | G2GF GB | B2A2df |\
g2g2bg | d2d2gd | BdGBAF | G4 :|


